raw/symbols/sol.svg

<svg width="42" height="42" viewBox="0 0 42 42" fill="none" xmlns="http://www.w3.org/2000/svg">
<circle cx="21" cy="21" r="21" fill="#14F195"/>
<path d="M11.8702 26.5003C12.0251 26.3458 12.238 26.2556 12.4639 26.2556H32.9461C33.3204 26.2556 33.5075 26.7064 33.243 26.9705L29.1968 31.0084C29.042 31.163 28.829 31.2532 28.6032 31.2532H8.12095C7.74667 31.2532 7.55953 30.8023 7.82411 30.5383L11.8702 26.5003Z" fill="#F3F3F3"/>
<path d="M11.8702 11.4225C12.0315 11.2679 12.2445 11.1777 12.4639 11.1777H32.9461C33.3204 11.1777 33.5075 11.6285 33.243 11.8926L29.1968 15.9305C29.042 16.0851 28.829 16.1753 28.6032 16.1753H8.12095C7.74667 16.1753 7.55953 15.7245 7.82411 15.4604L11.8702 11.4225Z" fill="#F3F3F3"/>
<path d="M29.1968 18.9124C29.042 18.7579 28.829 18.6677 28.6032 18.6677H8.12095C7.74667 18.6677 7.55953 19.1185 7.82411 19.3826L11.8702 23.4205C12.0251 23.5751 12.238 23.6653 12.4639 23.6653H32.9461C33.3204 23.6653 33.5075 23.2145 33.243 22.9504L29.1968 18.9124Z" fill="#F3F3F3"/>
</svg>

<svg xmlns="http://www.w3.org/2000/svg" width="42" height="42" fill="none"><circle cx="21" cy="21" r="21" fill="#14F195"/><path fill="#F3F3F3" d="M11.87 26.5a.84.84 0 0 1 .594-.244h20.482c.374 0 .562.45.297.715l-4.046 4.037a.84.84 0 0 1-.594.245H8.121a.419.419 0 0 1-.297-.715L11.87 26.5ZM11.87 11.422a.864.864 0 0 1 .594-.244h20.482c.374 0 .562.45.297.715l-4.046 4.037a.84.84 0 0 1-.594.245H8.121a.419.419 0 0 1-.297-.715l4.046-4.038ZM29.197 18.912a.84.84 0 0 0-.594-.244H8.121a.419.419 0 0 0-.297.715l4.046 4.038a.84.84 0 0 0 .594.244h20.482c.374 0 .562-.45.297-.715l-4.046-4.038Z"/></svg>
